X:1
T:[ID 1-137]
T:[ID 1-137]
T:Bezeichnung standardisiert: Drum sag ich noch einmal; Courante
T:Urheber unbekannt Erstbeleg: vor 1767 (Datum in der schriftlichen Quelle) Datum in der hier transkribierten schriftlichen Quelle: 1776 - 1791
C:Urheber unbekannt
C:Erstbeleg: vor 1767 (Datum in der schriftlichen Quelle)
C:Datum in der hier transkribierten schriftlichen Quelle: 1776 - 1791
L:1/8
M:2/4
K:D
V:1 treble 
V:1
 DFAd | fa a2 | A,CEA | eg g2 | DFAd | faag | fe/d/ e/g/d/c/ | d2 D2 :: a/g/f/g/ a/g/f/g/ | %9
 a/g/f/g/ a2 | g/f/e/f/ g/f/e/f/ | g/f/e/f/ g2 | DFAd | faag | fe/d/ e/g/d/c/ | d2 D2 :| %16

